X: 71
T: Deerfoot
R: hornpipe, reel
B: Ryan's Mammoth Collection, p.144
B: Cole's 1000 Fiddle Tunes
B: NEFR #71
F: http://www.ibiblio.org/fiddlers/DE_DEL.htm
M: C|
L: 1/8
K: F
c2 \
| cf af gc de | fe gf af ga | bg af gd bg | gf ed cB AB |
| cf af gc de | fc af gc de | fe fd cB AG | F2 A2 F2 :|
|: cB \
| Ac fe dc BA | BG gf ed cB | Ac ag fe dc | cB AB G2 cB |
| Ac fe dB gf | ec ag fe dc | df ed cB AG | F2 A2 F2 :|


